public/icons/netlify-icon.svg

<svg width="129" height="128" viewBox="0 0 129 128" fill="none" xmlns="http://www.w3.org/2000/svg">
<g clip-path="url(#clip0_45_103)">
<path d="M98.8662 0H30.8662C14.2977 0 0.866211 13.4315 0.866211 30V98C0.866211 114.569 14.2977 128 30.8662 128H98.8662C115.435 128 128.866 114.569 128.866 98V30C128.866 13.4315 115.435 0 98.8662 0Z" fill="#F4F2ED"/>
<path d="M87.2597 48.7024L87.2232 48.6869C87.2027 48.6789 87.1817 48.6714 87.1632 48.6529C87.1332 48.6209 87.111 48.5823 87.0983 48.5402C87.0856 48.4982 87.0829 48.4538 87.0902 48.4104L89.1062 36.0849L98.5607 45.5414L88.7282 49.7249C88.701 49.7364 88.6717 49.7417 88.6422 49.7404H88.6032C88.5838 49.7283 88.5661 49.7134 88.5507 49.6964C88.1844 49.2893 87.7469 48.9525 87.2597 48.7024ZM100.973 47.9514L111.082 58.0599C113.181 60.1624 114.232 61.2104 114.616 62.4259C114.673 62.6059 114.72 62.7859 114.756 62.9709L90.5982 52.7399L90.5592 52.7239C90.4627 52.6849 90.3502 52.6404 90.3502 52.5414C90.3502 52.4424 90.4652 52.3954 90.5617 52.3564L90.5927 52.3434L100.973 47.9514ZM114.344 66.2154C113.823 67.1959 112.806 68.2134 111.084 69.9369L99.6872 81.3314L84.9467 78.2619L84.8682 78.2464C84.7377 78.2254 84.5997 78.2019 84.5997 78.0844C84.5436 77.4764 84.363 76.8864 84.069 76.3512C83.7751 75.816 83.3742 75.347 82.8912 74.9734C82.8312 74.9134 82.8472 74.8194 82.8652 74.7334C82.8652 74.7204 82.8652 74.7074 82.8707 74.6969L85.6427 57.6769L85.6532 57.6194C85.6692 57.4889 85.6922 57.3379 85.8097 57.3379C86.4039 57.2641 86.9774 57.0728 87.4969 56.775C88.0163 56.4772 88.4713 56.0789 88.8352 55.6034C88.8587 55.5774 88.8742 55.5484 88.9057 55.5329C88.9892 55.4939 89.0882 55.5329 89.1742 55.5694L114.342 66.2154H114.344ZM97.0662 83.9524L78.3247 102.694L81.5327 82.9774L81.5377 82.9509C81.5402 82.9253 81.5456 82.8999 81.5537 82.8754C81.5797 82.8129 81.6472 82.7869 81.7127 82.7609L81.7437 82.7479C82.4462 82.4481 83.0675 81.986 83.5567 81.3994C83.6192 81.3264 83.6947 81.2559 83.7912 81.2429C83.8162 81.2391 83.8417 81.2391 83.8667 81.2429L97.0632 83.9554L97.0662 83.9524ZM74.3577 106.661L72.2452 108.773L48.8902 75.0199L48.8642 74.9834C48.8282 74.9339 48.7892 74.8844 48.7967 74.8269C48.7992 74.7854 48.8252 74.7489 48.8542 74.7174L48.8802 74.6839C48.9502 74.5794 49.0102 74.4749 49.0757 74.3629L49.1277 74.2714L49.1357 74.2639C49.1722 74.2014 49.2057 74.1414 49.2687 74.1074C49.3237 74.0814 49.3987 74.0919 49.4587 74.1049L75.3332 79.4409C75.4057 79.452 75.4741 79.4816 75.5317 79.5269C75.5657 79.5609 75.5732 79.5974 75.5812 79.6389C75.7615 80.3219 76.0973 80.9539 76.5624 81.4855C77.0275 82.0171 77.6093 82.434 78.2622 82.7034C78.3352 82.7399 78.3037 82.8209 78.2702 82.9069C78.2535 82.9446 78.2404 82.9838 78.2307 83.0244C77.9047 85.0064 75.1092 102.057 74.3577 106.661ZM69.9452 111.071C68.3882 112.612 67.4702 113.428 66.4322 113.757C65.4087 114.081 64.3103 114.081 63.2867 113.757C62.0717 113.371 61.0207 112.323 58.9212 110.221L35.4672 86.7669L41.5932 77.2654C41.6194 77.218 41.6549 77.1763 41.6977 77.1429C41.7627 77.0959 41.8567 77.1169 41.9352 77.1429C43.3412 77.5674 44.8507 77.4909 46.2067 76.9264C46.2772 76.9004 46.3477 76.8824 46.4027 76.9319C46.4297 76.9569 46.454 76.9848 46.4757 77.0154L69.9452 111.073V111.071ZM33.2057 84.5054L27.8257 79.1254L38.4507 74.5924C38.4777 74.5801 38.5071 74.574 38.5367 74.5744C38.6252 74.5744 38.6777 74.6629 38.7247 74.7439C38.8314 74.9079 38.9444 75.0678 39.0637 75.2234L39.0972 75.2654C39.1287 75.3094 39.1077 75.3539 39.0767 75.3959L33.2082 84.5054H33.2057ZM25.4442 76.7439L18.6372 69.9369C17.4797 68.7789 16.6397 67.9394 16.0552 67.2169L36.7527 71.5099L36.8312 71.5229C36.9587 71.5434 37.0997 71.5669 37.0997 71.6869C37.0997 71.8174 36.9457 71.8774 36.8152 71.9269L36.7552 71.9529L25.4442 76.7439ZM14.8662 63.7169C14.8897 63.2784 14.9687 62.8446 15.1012 62.4259C15.4867 61.2104 16.5352 60.1624 18.6372 58.0599L27.3482 49.3494C31.3591 55.1702 35.3808 60.9836 39.4132 66.7894C39.4832 66.8829 39.5617 66.9874 39.4807 67.0654C39.1002 67.4854 38.7192 67.9444 38.4507 68.4429C38.4216 68.507 38.3767 68.5625 38.3202 68.6044C38.2862 68.6254 38.2502 68.6174 38.2102 68.6094H38.2052L14.8662 63.7144V63.7169ZM29.6797 47.0179L41.3922 35.3049C42.4932 35.7874 46.4992 37.4799 50.0822 38.9929C52.7947 40.1404 55.2672 41.1834 56.0442 41.5229C56.1227 41.5539 56.1932 41.5854 56.2267 41.6634C56.2477 41.7104 56.2372 41.7704 56.2267 41.8199C56.0419 42.6654 56.0697 43.5436 56.3078 44.3756C56.5458 45.2077 56.9866 45.9677 57.5907 46.5874C57.6692 46.6659 57.5907 46.7774 57.5232 46.8744L57.4867 46.9294L45.5942 65.3494C45.5682 65.4016 45.5295 65.4465 45.4817 65.4799C45.4192 65.5189 45.3307 65.5009 45.2577 65.4824C44.7949 65.3619 44.3194 65.2971 43.8412 65.2894C43.4137 65.2894 42.9492 65.3679 42.4802 65.4539H42.4772C42.4252 65.4619 42.3782 65.4719 42.3367 65.4409C42.2906 65.4033 42.2509 65.3583 42.2192 65.3079L29.6797 47.0179ZM43.7582 32.9394L58.9212 17.7764C61.0207 15.6769 62.0717 14.6264 63.2867 14.2424C64.3102 13.9187 65.4087 13.9187 66.4322 14.2424C67.6477 14.6259 68.6987 15.6774 70.7982 17.7764L74.0842 21.0624L63.2997 37.7644C63.2732 37.813 63.237 37.8556 63.1932 37.8894C63.1277 37.9344 63.0367 37.9159 62.9582 37.8894C62.1079 37.6315 61.2076 37.5846 60.3351 37.7527C59.4626 37.9208 58.6442 38.299 57.9507 38.8544C57.8802 38.9274 57.7762 38.8859 57.6872 38.8469C56.2792 38.2339 45.3252 33.6049 43.7582 32.9394ZM76.3742 23.3524L86.3312 33.3099L83.9322 48.1704V48.2094C83.9295 48.2434 83.9224 48.2768 83.9112 48.3089C83.8852 48.3609 83.8327 48.3714 83.7807 48.3869C83.2676 48.542 82.7845 48.7827 82.3517 49.0989C82.3332 49.1126 82.3157 49.1274 82.2992 49.1434C82.2707 49.1744 82.2422 49.2034 82.1952 49.2084C82.1569 49.2097 82.1187 49.2036 82.0827 49.1904L66.9092 42.7434L66.8807 42.7299C66.7842 42.6909 66.6697 42.6439 66.6697 42.5449C66.58 41.6994 66.3038 40.8844 65.8612 40.1584C65.7882 40.0384 65.7072 39.9134 65.7697 39.7909L76.3742 23.3524ZM66.1192 45.7974L80.3432 51.8219C80.4217 51.8584 80.5077 51.8919 80.5417 51.9729C80.5552 52.0214 80.5552 52.0729 80.5417 52.1214C80.493 52.347 80.4667 52.5767 80.4632 52.8074V53.2064C80.4632 53.3059 80.3617 53.3474 80.2677 53.3864L80.2392 53.3969C77.9857 54.3594 48.6037 66.8884 48.5592 66.8884C48.5147 66.8884 48.4682 66.8884 48.4237 66.8439C48.3457 66.7659 48.4237 66.6564 48.4937 66.5569C48.5064 66.5399 48.5187 66.5226 48.5307 66.5049L60.2197 48.4049L60.2407 48.3739C60.3087 48.2639 60.3867 48.1419 60.5117 48.1419L60.6292 48.1599C60.8952 48.1964 61.1302 48.2304 61.3672 48.2304C63.1407 48.2304 64.7837 47.3674 65.7747 45.8909C65.7989 45.8519 65.8289 45.8169 65.8637 45.7869C65.9342 45.7344 66.0382 45.7614 66.1192 45.7974ZM49.8292 69.7514L81.8562 56.0934C81.8562 56.0934 81.9032 56.0934 81.9472 56.1374C82.1222 56.3124 82.2707 56.4294 82.4142 56.5389L82.4847 56.5834C82.5497 56.6199 82.6152 56.6619 82.6202 56.7294C82.6202 56.7554 82.6202 56.7714 82.6152 56.7949L79.8712 73.6479L79.8607 73.7154C79.8427 73.8459 79.8242 73.9949 79.7017 73.9949C78.9701 74.0436 78.2614 74.2703 77.6374 74.6553C77.0134 75.0402 76.4929 75.5719 76.1212 76.2039L76.1077 76.2244C76.0712 76.2844 76.0377 76.3419 75.9777 76.3734C75.9227 76.3994 75.8522 76.3889 75.7952 76.3759L50.2547 71.1074C50.2287 71.1024 49.8577 69.7539 49.8292 69.7514Z" fill="url(#paint0_radial_45_103)"/>
</g>
<defs>
<radialGradient id="paint0_radial_45_103" cx="0" cy="0" r="1" gradientUnits="userSpaceOnUse" gradientTransform="translate(11.5916 62.631) rotate(90) scale(99.89 115.326)">
<stop stop-color="#20C6B7"/>
<stop offset="1" stop-color="#4D9ABF"/>
</radialGradient>
<clipPath id="clip0_45_103">
<rect width="128" height="128" fill="white" transform="translate(0.866211)"/>
</clipPath>
</defs>
</svg>

<svg xmlns="http://www.w3.org/2000/svg" width="129" height="128" fill="none"><g clip-path="url(#a)"><path fill="#F4F2ED" d="M98.866 0h-68c-16.568 0-30 13.431-30 30v68c0 16.569 13.432 30 30 30h68c16.569 0 30-13.431 30-30V30c0-16.569-13.431-30-30-30Z"/><path fill="url(#b)" d="m87.26 48.702-.037-.015c-.02-.008-.041-.016-.06-.034a.285.285 0 0 1-.073-.243l2.016-12.325 9.455 9.456-9.833 4.184a.198.198 0 0 1-.086.015h-.039a.248.248 0 0 1-.052-.044 4.503 4.503 0 0 0-1.291-.994Zm13.713-.75 10.109 10.108c2.099 2.102 3.15 3.15 3.534 4.366.057.18.104.36.14.545L90.598 52.74l-.039-.016c-.096-.04-.209-.084-.209-.183 0-.099.115-.146.212-.185l.03-.013 10.381-4.392Zm13.371 18.263c-.521.98-1.538 1.998-3.26 3.722L99.687 81.33l-14.74-3.07-.079-.015c-.13-.02-.268-.044-.268-.162a4.449 4.449 0 0 0-1.709-3.11c-.06-.06-.044-.155-.026-.24 0-.014 0-.027.006-.037l2.772-17.02.01-.058c.016-.13.04-.281.157-.281a4.51 4.51 0 0 0 3.025-1.735c.024-.026.04-.055.07-.07.084-.04.183 0 .27.036l25.167 10.646h.002ZM97.066 83.952l-18.741 18.742 3.208-19.717.005-.026a.349.349 0 0 1 .016-.076c.026-.062.093-.088.159-.114l.03-.013a4.828 4.828 0 0 0 1.814-1.349c.062-.073.138-.143.234-.156a.251.251 0 0 1 .076 0l13.196 2.712.003-.003Zm-22.708 22.709-2.113 2.112L48.89 75.02l-.026-.037c-.036-.05-.075-.099-.067-.156.002-.042.028-.078.057-.11l.026-.033c.07-.105.13-.21.196-.321l.052-.092.008-.007c.036-.063.07-.123.133-.157.055-.026.13-.015.19-.002l25.874 5.336c.073.011.141.04.199.086.034.034.041.07.05.112a4.58 4.58 0 0 0 2.68 3.064c.073.037.042.118.008.204a.679.679 0 0 0-.04.117 46588.98 46588.98 0 0 0-3.872 23.637Zm-4.413 4.41c-1.557 1.541-2.475 2.357-3.513 2.686a5.211 5.211 0 0 1-3.145 0c-1.215-.386-2.266-1.434-4.366-3.536L35.467 86.767l6.126-9.502a.402.402 0 0 1 .105-.122c.065-.047.159-.026.237 0a6.343 6.343 0 0 0 4.272-.217c.07-.026.14-.044.196.006a.536.536 0 0 1 .073.083l23.47 34.058v-.002Zm-36.74-26.566-5.38-5.38 10.626-4.533a.2.2 0 0 1 .086-.018c.088 0 .14.089.188.17.106.164.22.324.339.48l.033.041c.032.044.01.089-.02.13l-5.869 9.11h-.002Zm-7.76-7.761-6.808-6.807c-1.157-1.158-1.997-1.998-2.582-2.72l20.698 4.293.078.013c.128.02.269.044.269.164 0 .13-.154.19-.285.24l-.06.026-11.31 4.79ZM14.865 63.717c.024-.439.103-.872.235-1.291.386-1.216 1.434-2.264 3.536-4.366l8.711-8.71c4.011 5.82 8.033 11.634 12.065 17.44.07.093.149.197.068.275-.38.42-.762.88-1.03 1.378a.414.414 0 0 1-.13.161c-.035.021-.07.013-.11.005h-.006l-23.339-4.895v.003Zm14.814-16.7 11.712-11.712c1.101.482 5.107 2.175 8.69 3.688 2.713 1.147 5.185 2.19 5.962 2.53.079.03.15.062.183.14.02.047.01.107 0 .157a5.23 5.23 0 0 0 1.364 4.767c.078.079 0 .19-.068.287l-.036.055-11.893 18.42a.35.35 0 0 1-.112.13c-.063.04-.151.022-.224.003a6.005 6.005 0 0 0-1.417-.193c-.427 0-.892.079-1.36.165h-.004c-.052.008-.099.018-.14-.013a.549.549 0 0 1-.118-.133l-12.54-18.29ZM43.758 32.94l15.163-15.163c2.1-2.1 3.15-3.15 4.366-3.534a5.216 5.216 0 0 1 3.145 0c1.216.384 2.267 1.435 4.366 3.534l3.286 3.286L63.3 37.764a.4.4 0 0 1-.107.125c-.065.045-.156.027-.235 0a5.471 5.471 0 0 0-5.007.965c-.07.073-.175.032-.264-.007-1.408-.613-12.362-5.242-13.929-5.908Zm32.616-9.587 9.957 9.958-2.399 14.86v.04a.397.397 0 0 1-.02.099c-.027.052-.08.062-.131.078a4.754 4.754 0 0 0-1.43.712.519.519 0 0 0-.052.044c-.028.031-.057.06-.104.065a.297.297 0 0 1-.112-.018l-15.174-6.447-.028-.013c-.097-.04-.211-.086-.211-.185a5.75 5.75 0 0 0-.809-2.387c-.073-.12-.154-.245-.091-.367l10.604-16.439ZM66.12 45.797l14.224 6.025c.079.036.165.07.199.15.013.05.013.1 0 .15a3.502 3.502 0 0 0-.079.685v.4c0 .099-.101.14-.195.18l-.029.01c-2.253.962-31.635 13.491-31.68 13.491-.044 0-.09 0-.135-.044-.078-.078 0-.188.07-.287l.037-.052 11.689-18.1.02-.031c.069-.11.147-.232.272-.232l.117.018c.266.036.501.07.738.07a5.28 5.28 0 0 0 4.408-2.34.452.452 0 0 1 .089-.103c.07-.053.174-.026.255.01ZM49.83 69.751l32.027-13.658s.047 0 .091.044c.175.175.324.292.467.402l.07.044c.066.037.131.079.136.146 0 .026 0 .042-.005.066l-2.744 16.853-.01.067c-.018.13-.037.28-.16.28a4.5 4.5 0 0 0-3.58 2.209l-.013.02c-.037.06-.07.118-.13.15-.055.025-.126.015-.183.002l-25.54-5.269c-.026-.005-.397-1.353-.426-1.356Z"/></g><defs><radialGradient id="b" cx="0" cy="0" r="1" gradientTransform="matrix(0 99.89 -115.326 0 11.592 62.631)" gradientUnits="userSpaceOnUse"><stop stop-color="#20C6B7"/><stop offset="1" stop-color="#4D9ABF"/></radialGradient><clipPath id="a"><path fill="#fff" d="M.866 0h128v128h-128z"/></clipPath></defs></svg>
